file-document-remove-outline.svg

<svg fill="currentColor" viewBox="0 0 24 24"><path d="M22.54 21.12 20.41 19l2.13-2.12-1.42-1.42L19 17.59l-2.12-2.13-1.42 1.42L17.59 19l-2.13 2.12 1.42 1.42L19 20.41l2.12 2.13M6 2a2 2 0 0 0-2 2v16c0 1.11.89 2 2 2h7.81c-.36-.62-.61-1.3-.73-2H6V4h7v5h5v4.08c.33-.05.67-.08 1-.08.34 0 .67.03 1 .08V8l-6-6M8 12v2h8v-2m-8 4v2h5v-2Z"/></svg>

<svg  viewBox="0 0 24 24" fill="currentColor"><path  d="M22.54 21.12L20.41 19L22.54 16.88L21.12 15.46L19 17.59L16.88 15.46L15.46 16.88L17.59 19L15.46 21.12L16.88 22.54L19 20.41L21.12 22.54M6 2C4.89 2 4 2.9 4 4V20C4 21.11 4.89 22 6 22H13.81C13.45 21.38 13.2 20.7 13.08 20H6V4H13V9H18V13.08C18.33 13.03 18.67 13 19 13C19.34 13 19.67 13.03 20 13.08V8L14 2M8 12V14H16V12M8 16V18H13V16Z"/></svg>
